X: 20836
T: Johnny's Wedding
R: reel
M: 4/4
K: Edorian
GEBE GEEG|FDAD FDDF|GEBE GEEG|FEDF E3F|
GEBE GEEG|FDAD FDDF|EGFA GBAc|Be^df e2:|
(3gfe fd edBA|BGAF GEEf|(3gfe fd edBA|Be^df e2 ef|
(3gfe fd edBA|BGAF GE E2|EGFA GBAc|Be^df e2:|

